!! 00027] TT[TB
!! Eigene Aufnahme, Guangzhou, 5.5.87
!!!OTL: Ma yi la
!!!ARE: Xinjiang
!! Ethnic Group: Hasake
!! MM,           (Quelle S. Bandprotokoll)
!!!SCT: C0966
!!!YEM: Copyright 1995, estate of Helmut Schaffrath.
**kern
*ICvox
*Ivox
*M3/4
*k[f#c#g#d#]
*E:
{4b
8ee
8dd#
4ee
=1
8dd#
8ee
8ff#
8dd#
4ee
=2
4dd#
4cc#
8dd#
8ff#
=3
[2.ee
=4
2.ee]}
=5
{4b
8ee
8dd#
4ee
=6
8dd#
8ee
8ff#
8dd#
4ee
=7
4dd#
4cc#
8dd#
8ff#
=8
[2.ee
=9
2.ee]}
=10
{4b
8ee
8dd#
4ee
=11
8dd#
8ee
8ff#
8dd#
4ee
=12
4dd#
8dd#
8cc#
8dd#
8ee
=13
8dd#
8cc#
8b
8b
8b
8r}
=14
{4b
4cc#
8cc#
8b
=15
2b
4g#
=16
2a
8b
8a
=17
4g#
4f#
8g#
8f#
=18
8g#
8a
4b
4cc#}
=19
{8b
8cc#
8b
8g#
8a
8b
=20
4a
8g#
8f#
8g#
8a
=21
8b
8cc#
8b
8g#
8a
8b
=22
4a
8g#
8f#
8g#
8a
=23
4b
4cc#}
{8b
8g#
=24
2f#
8g#
8f#
=25
2.e
=26
[2.ee
=27
2.ee]}
==
!!!AGN: Qingge
!! Die Saengerin Lei Huilan ist Angehoerige der Zhuang Minderheit und
!!    studiert an der Guangzhouer Musikhochschule.
!!    Aufgenommen am 5.5.87
!!    Angegeben ist die 3. Strophe; die ersten beiden sind 1 Takt kuerzer
!!    und enden infolgedessen mit 2 Takten 1__.
!!!ONB: ESAC (Essen Associative Code) Database: CHINA
!!!AMT: simple triple
!!!AIN: vox
!!!EED: Helmut Schaffrath
!!!EEV: 1.0
*-
!!!ONB: Tied note syntax fixed by Craig Sapp, 2004/05/03/
